src/images/svg/markets/market-and-risk-new.svg

<svg width="50" height="50" viewBox="0 0 50 50" fill="none" xmlns="http://www.w3.org/2000/svg">
<rect opacity="0.01" x="1" y="1" width="48" height="48" fill="white" stroke="#979797"/>
<mask id="mask0_11693_399544" style="mask-type:alpha" maskUnits="userSpaceOnUse" x="1" y="1" width="48" height="48">
<path fill-rule="evenodd" clip-rule="evenodd" d="M1 1H48.9997V48.9997H1V1Z" fill="white"/>
</mask>
<g mask="url(#mask0_11693_399544)">
<path fill-rule="evenodd" clip-rule="evenodd" d="M26.7229 46.1799L26.8539 41.9129L28.6309 41.9679L28.7069 39.4789L31.3729 39.5599L31.4929 35.6489L33.3519 33.0359L35.1569 32.2019L37.9789 32.9999L39.6919 35.1869L43.0529 35.8239C43.0529 35.8239 38.5029 45.0689 26.7229 46.1799ZM19.8419 38.1429L18.4199 37.8269L17.1579 35.6169L18.5779 33.5639L19.8049 32.8879L20.7889 33.5639L21.1049 35.4589L21.2629 37.0369L19.8419 38.1429ZM13.7259 34.3129L14.8149 35.8119L13.4529 37.6509L9.5019 36.5609L4.1219 31.0439C3.7129 28.4219 3.5639 25.9859 3.5639 25.9859C3.5529 25.7039 3.5449 25.4209 3.5449 25.1369C3.5449 20.6909 4.8449 16.4639 7.3179 12.8239L8.4769 11.1399L10.6169 12.4249L11.4059 13.6879L13.6169 15.1099L15.0369 16.0569L15.5109 17.1619V18.7409C15.5109 19.8469 16.1429 24.8989 16.1429 24.8989L14.5639 27.1099L12.5109 28.5309C12.5109 28.5309 12.0369 29.3209 12.0369 30.1099V30.3719V30.4149V30.8999V32.9519L13.7259 34.3129ZM45.942 25L45.9 26.075C45.878 26.633 45.346 27.028 44.806 26.886L43.262 26.481L42.362 25H25V1C17.316 1 10.48 4.617 6.087 10.235C2.903 14.308 1 19.43 1 25C1 25.37 1.012 25.738 1.029 26.104C1.606 38.846 12.116 49 25 49C38.255 49 49 38.255 49 25H45.942Z" fill="#85ACAF"/>
</g>
<g style="mix-blend-mode:multiply">
<path fill-rule="evenodd" clip-rule="evenodd" d="M44.2381 4.55H36.0221L31.6611 12.061H20.1271C19.7281 12.911 18.8711 13.504 17.8691 13.504C16.4891 13.504 15.3691 12.385 15.3691 11.004C15.3691 9.623 16.4891 8.504 17.8691 8.504C18.9161 8.504 19.8091 9.149 20.1821 10.061H30.5081L34.8701 2.55H44.1891C44.5631 1.641 45.4561 1 46.5001 1C47.8801 1 49.0001 2.119 49.0001 3.5C49.0001 4.881 47.8801 6 46.5001 6C45.4961 6 44.6351 5.404 44.2381 4.55ZM42.5256 19.7372H37.9156V6.6152H42.5256V19.7372ZM31.4426 19.7372H36.0516V13.8802H31.4426V19.7372ZM29.5796 19.7382H25.0306V14.9702H29.5796V19.7382ZM48.9996 23.0982H25.0306V21.1682H48.9996V23.0982ZM44.3896 19.7372H48.9996V9.0672H44.3896V19.7372Z" fill="#FF444F"/>
</g>
</svg>

<svg width="50" height="50" fill="none" xmlns="http://www.w3.org/2000/svg"><path opacity=".01" fill="#fff" stroke="#979797" d="M1 1h48v48H1z"/><mask id="a" style="mask-type:alpha" maskUnits="userSpaceOnUse" x="1" y="1" width="48" height="48"><path fill-rule="evenodd" clip-rule="evenodd" d="M1 1h48v48H1V1Z" fill="#fff"/></mask><g mask="url(#a)"><path fill-rule="evenodd" clip-rule="evenodd" d="m26.723 46.18.13-4.267 1.778.055.076-2.49 2.666.082.12-3.911 1.859-2.613 1.805-.834 2.822.798 1.713 2.187 3.36.637s-4.55 9.245-16.33 10.356Zm-6.881-8.037-1.422-.316-1.262-2.21 1.42-2.053 1.227-.676.984.676.316 1.895.158 1.578-1.421 1.106Zm-6.116-3.83 1.089 1.499-1.362 1.839-3.951-1.09-5.38-5.517a61.482 61.482 0 0 1-.558-5.058 21.772 21.772 0 0 1 3.754-13.162l1.159-1.684 2.14 1.285.789 1.263 2.21 1.422 1.42.947.475 1.105v1.579c0 1.106.632 6.158.632 6.158l-1.58 2.21-2.052 1.422s-.474.79-.474 1.579v2.842l1.689 1.36ZM45.942 25l-.042 1.075a.873.873 0 0 1-1.094.811l-1.544-.405-.9-1.481H25V1c-7.684 0-14.52 3.617-18.913 9.235a23.889 23.889 0 0 0-5.058 15.869C1.606 38.846 12.116 49 25 49c13.255 0 24-10.745 24-24h-3.058Z" fill="#85ACAF"/></g><path fill-rule="evenodd" clip-rule="evenodd" d="M44.238 4.55h-8.216l-4.36 7.511H20.126a2.494 2.494 0 0 1-4.758-1.057 2.5 2.5 0 0 1 4.813-.943h10.326L34.87 2.55h9.32A2.5 2.5 0 1 1 46.5 6a2.495 2.495 0 0 1-2.262-1.45Zm-1.712 15.187h-4.61V6.615h4.61v13.122Zm-11.083 0h4.609V13.88h-4.61v5.857Zm-1.863.001h-4.55V14.97h4.55v4.768ZM49 23.098H25.03v-1.93H49v1.93Zm-4.61-3.36H49V9.067h-4.61v10.67Z" fill="#FF444F" style="mix-blend-mode:multiply"/></svg>
